X: 1
T: John Blessings
M: 4/4
L: 1/8
R: reel
K: Gmaj
A~F3 EFDF|AFAB dedB|A~F3 EFDF|1AFAB ~d3B:|2AFAB ~d3A||
|defd efdB|AFAB dgfe|defd efdB|AFAB ~d3A|defd efdB|AFAB dgfe|d~f3 afbf|a
fef ~d3B||
